icons/pencil.svg

<svg width="24" height="24" viewBox="0 0 24 24" fill="none" xmlns="http://www.w3.org/2000/svg">
<path d="M8.62212 20.6546C8.35457 20.9225 8.03685 21.1351 7.68711 21.2801C7.33737 21.4252 6.96247 21.5 6.58383 21.5001H2.49988V17.4425C2.49988 16.6783 2.80388 15.9447 3.34432 15.4042M8.62212 20.6546L19.1503 10.1222M8.62212 20.6546C7.53064 18.3441 5.65984 16.485 3.34432 15.4042M3.34432 15.4042L13.8827 4.85425M19.1503 10.1222L20.6586 8.61486C21.1996 8.07385 21.5036 7.34009 21.5036 6.575C21.5036 5.8099 21.1996 5.07614 20.6586 4.53513L19.4701 3.34552C19.2021 3.07739 18.8839 2.86472 18.5337 2.71965C18.1834 2.57458 17.808 2.49996 17.4289 2.50006C17.0499 2.50016 16.6745 2.57497 16.3243 2.72022C15.9742 2.86547 15.6561 3.07831 15.3882 3.34657L13.8827 4.85425M19.1503 10.1222C18.0619 7.80603 16.1988 5.94275 13.8827 4.85425" stroke="black" stroke-width="2" stroke-linecap="round" stroke-linejoin="round"/>
</svg>

<svg xmlns="http://www.w3.org/2000/svg" width="24" height="24" viewBox="0 0 24 24" fill="none" stroke="currentColor" stroke-width="2" stroke-linecap="round" stroke-linejoin="round">
<path d="M8.622 20.655a2.88 2.88 0 0 1-2.038.845H2.5v-4.058c0-.764.304-1.497.844-2.038m5.278 5.25L19.15 10.123M8.622 20.655a10.97 10.97 0 0 0-5.278-5.25m0 0 10.539-10.55m5.267 5.267 1.509-1.507a2.885 2.885 0 0 0 0-4.08l-1.189-1.19a2.885 2.885 0 0 0-4.082.002l-1.505 1.507m5.267 5.268a10.98 10.98 0 0 0-5.267-5.268"/>
</svg>
